64x64/apps/com.github.bartzaalberg.alias.svg

<svg height="64" width="64" xmlns="http://www.w3.org/2000/svg"><circle cx="32" cy="33" opacity=".2" r="28"/><circle cx="32" cy="32" fill="#1db5ff" r="28"/><path d="m29.192 17-.148.347-10.644 27.653h6.005l2.155-6h10.91l2.138 6h5.994l-10.698-28zm2.84 8.173 3.297 7.827h-6.615z" opacity=".2"/><g fill="#f4f4f7"><path d="m29.192 16-.148.347-10.644 27.653h6.005l2.155-6h10.91l2.138 6h5.994l-10.698-28zm2.84 8.173 3.297 7.827h-6.615z"/><path d="m32 4a28 28 0 0 0 -28 28 28 28 0 0 0 .018.492 28 28 0 0 1 27.982-27.492 28 28 0 0 1 27.975 27.492 28 28 0 0 0 .025-.492 28 28 0 0 0 -28-28z" opacity=".2"/></g></svg>

<svg xmlns="http://www.w3.org/2000/svg" width="64" height="64"><circle style="opacity:.2" cx="32" cy="33" r="28"/><circle style="fill:#1db5ff" cx="32" cy="32" r="28"/><path style="opacity:.2" d="m29.192 17-.148.347L18.4 45h6.005l2.155-6h10.91l2.138 6h5.994L34.904 17zm2.84 8.173L35.329 33h-6.615z"/><path style="fill:#f4f4f7" d="m29.192 16-.148.347L18.4 44h6.005l2.155-6h10.91l2.138 6h5.994L34.904 16zm2.84 8.173L35.329 32h-6.615z"/><path style="opacity:.2;fill:#f4f4f7" d="M32 4A28 28 0 0 0 4 32a28 28 0 0 0 .018.492A28 28 0 0 1 32 5a28 28 0 0 1 27.975 27.492A28 28 0 0 0 60 32 28 28 0 0 0 32 4z"/></svg>
